X: 32100
T: Perpetual Check
R: reel
M: 4/4
K: Edorian
|:EBAF E2AF|DFEB AFEA|D2 F/E/D ADFD|E2E2 BEGB|
egfd eB B2|d/c/B AF D2 fg|afge fded|1 B/c/d dA FEED:|2 B/c/d dA FEE2||
|:be (3eee Be E2|be (3eee bafg|a2 fa daAG|FdEd DFGF|
E2E2 BEFE|D2D2 ADFA|afge fded|B/c/d dA FEE2:|

